!! 00027] TT[TB
!! Eigene Aufnahme, Guangzhou, 5.5.87
!!!OTL: Bi gu diao
!!!ARE: Asia, China,ÿHunan
!! Ethnic Group: Han
!! MM, handschriftl., Quelle S. Bandprotokoll)
!!!SCT: C0969
!!!YEM: Copyright 1995, estate of Helmut Schaffrath.
**kern
*ICvox
*Ivox
*M2/4
*k[b-e-]
*B-:
{4bb-
8dd
8gg
=1
4.ff
8gg
=2
8.bb-
16ccc
8ddd
8gg
=3
2gg}
=4
{4ddd
4ddd
=5
8.gg
16ddd
4bb-
=6
8ddd
16gg
16bb-
8gg
8dd
=7
2ff}
=8
{8bb-
8fff
4ddd
=9
4r
4r
=10
8ddd
8gg
4b-
=11
4r
4r}
=12
{4ddd
8ddd
8ddd
=13
8ddd
8fff
8gg
8gg
=14
8.gg
16bb-
8ddd
8ccc
=15
2bb-}
=16
{4bb-
8bb-
8ddd
=17
2ff
=18
4ddd
8gg
8bb-
=19
8bb-
4.gg}
=20
{8.gg
16ddd
4b-
=21
8gg
4bb-
8ccc
=22
8.gg
16bb-
8gg
8dd
=23
2ff}
=24
{4fff
8ddd
8ccc
=25
4ddd
8gg
8bb-
=26
8.fff
16ggg
8ddd
8ccc
=27
2bb-}
=28
{4.ddd
8fff
=29
8gg
8bb-
8ddd
8gg
=30
8.bb-
16ccc
8ddd
8ccc
=31
4.bb-
8gg}
=32
{8ddd
8bb-
8bb-
8gg
=33
8.ddd
16fff
8ddd
8gg
=34
8.bb-
16ccc
8ddd
8ccc
=35
2bb-}
=36
{8bb-
8fff
4ddd
=37
8.ddd
16gg
8ddd
8gg
=38
8.bb-
16ccc
8ddd
8ccc
=39
2bb-}
=40
{8ddd
8bb-
8bb-
8gg
=41
8fff
8ddd
8ddd
16gg
16bb-
=42
8.fff
16ggg
8ddd
8ccc
=43
2bb-}
=44
{8bb-
8fff
4ddd
=45
8bb-
8ddd
8gg
8gg
=46
8.gg
16bb-
8ddd
8ccc
=47
2bb-}
=48
{4fff
8ddd
8ccc
=49
2bb-}
=50
{8.gg
16bb-
8ddd
8ccc
=51
4.bb-}
{8ccc
=52
4bb-
8r
8ccc
=53
4bb-
8r
8ccc
=54
4.bb-
8ccc
=55
4ddd
4fff}
=56
{8.ccc
16ddd
8ccc
8bb-
=57
8.gg
16bb-
8ccc
8ddd
=58
2bb-}
==
!!!AGN: Xiaodiao. Wuge, Huagu, Hunan huagu. Biaoda aiqing
!! Die Saengerin Liang Zhaoping studiert an der Guangzhouer
!!    Musikhochschule. Aufgenommen am 5.5.87 NETZBRUMMEN!
!!    Vereinzelt Verzierungen. Vorspiel weggelassen.
!!!ONB: ESAC (Essen Associative Code) Database: CHINA
!!!AMT: simple duple
!!!AIN: vox
!!!EED: Helmut Schaffrath
!!!EEV: 1.0
*-
